Numix/scalable/status/indicator-cpufreq-25.svg

<svg xmlns="http://www.w3.org/2000/svg" viewBox="0 0 16 16">
 <path d="m 5 0 c -0.554 0 -1 0.446 -1 1 l 0 1 c -1.108 0 -2 0.892 -2 2 l -1 0 c -0.554 0 -1 0.446 -1 1 c 0 0.554 0.446 1 1 1 l 1 0 l 0 1 l -1 0 c -0.554 0 -1 0.446 -1 1 c 0 0.554 0.446 1 1 1 l 1 0 l 0 1 l -1 0 c -0.554 0 -1 0.446 -1 1 c 0 0.554 0.446 1 1 1 l 1 0 c 0 1.108 0.892 2 2 2 l 0 1 c 0 0.554 0.446 1 1 1 c 0.554 0 1 -0.446 1 -1 l 0 -1 l 1 0 l 0 1 c 0 0.554 0.446 1 1 1 c 0.554 0 1 -0.446 1 -1 l 0 -1 l 1 0 l 0 1 c 0 0.554 0.446 1 1 1 c 0.554 0 1 -0.446 1 -1 l 0 -1 c 1.108 0 2 -0.892 2 -2 l 1 0 c 0.554 0 1 -0.446 1 -1 c 0 -0.554 -0.446 -1 -1 -1 l -1 0 l 0 -1 l 1 0 c 0.554 0 1 -0.446 1 -1 c 0 -0.554 -0.446 -1 -1 -1 l -1 0 l 0 -1 l 1 0 c 0.554 0 1 -0.446 1 -1 c 0 -0.554 -0.446 -1 -1 -1 l -1 0 c 0 -1.108 -0.892 -2 -2 -2 l 0 -1 c 0 -0.554 -0.446 -1 -1 -1 c -0.554 0 -1 0.446 -1 1 l 0 1 l -1 0 l 0 -1 c 0 -0.554 -0.446 -1 -1 -1 c -0.554 0 -1 0.446 -1 1 l 0 1 l -1 0 l 0 -1 c 0 -0.554 -0.446 -1 -1 -1 z m -0.5 3 l 7 0 c 0.833 0 1.5 0.667 1.5 1.5 l 0 7 c 0 0.833 -0.667 1.5 -1.5 1.5 l -7 0 c -0.833 0 -1.5 -0.667 -1.5 -1.5 l 0 -7 c 0 -0.833 0.667 -1.5 1.5 -1.5 z" style="fill:#bebebe;fill-opacity:1;stroke:none;fill-rule:evenodd"/>
 <path d="m 5 10 6 0 c 0.598 0 1 0.46 1 1 0 0.554 -0.446 1 -1 1 l -6 0 c -0.554 0 -1 -0.446 -1 -1 0 -0.553 0.501 -1 1 -1 z" style="fill:#bebebe;fill-opacity:1;stroke:none;fill-rule:evenodd"/>
</svg>

<?xml version="1.0" encoding="UTF-8" standalone="no"?>
<svg
   xmlns:dc="http://purl.org/dc/elements/1.1/"
   xmlns:cc="http://creativecommons.org/ns#"
   xmlns:rdf="http://www.w3.org/1999/02/22-rdf-syntax-ns#"
   xmlns:svg="http://www.w3.org/2000/svg"
   xmlns="http://www.w3.org/2000/svg"
   xmlns:sodipodi="http://sodipodi.sourceforge.net/DTD/sodipodi-0.dtd"
   xmlns:inkscape="http://www.inkscape.org/namespaces/inkscape"
   width="16"
   viewBox="0 0 16 16"
   height="16"
   id="svg2"
   version="1.1"
   inkscape:version="0.91 r"
   sodipodi:docname="indicator-cpufreq-25.svg">
  <metadata
     id="metadata10">
    <rdf:RDF>
      <cc:Work
         rdf:about="">
        <dc:format>image/svg+xml</dc:format>
        <dc:type
           rdf:resource="http://purl.org/dc/dcmitype/StillImage" />
      </cc:Work>
    </rdf:RDF>
  </metadata>
  <defs
     id="defs8" />
  <sodipodi:namedview
     pagecolor="#ffffff"
     bordercolor="#666666"
     borderopacity="1"
     objecttolerance="10"
     gridtolerance="10"
     guidetolerance="10"
     inkscape:pageopacity="0"
     inkscape:pageshadow="2"
     inkscape:window-width="1280"
     inkscape:window-height="970"
     id="namedview6"
     showgrid="true"
     inkscape:zoom="22.627418"
     inkscape:cx="6.2063443"
     inkscape:cy="7.1607539"
     inkscape:window-x="0"
     inkscape:window-y="0"
     inkscape:window-maximized="1"
     inkscape:current-layer="svg2">
    <inkscape:grid
       type="xygrid"
       id="grid3008" />
  </sodipodi:namedview>
  <path
     style="fill:#bebebe;fill-opacity:1;fill-rule:evenodd;stroke:none"
     d="M 5 0 C 4.446 0 4 0.446 4 1 L 4 2 C 2.892 2 2 2.892 2 4 L 1 4 C 0.446 4 0 4.446 0 5 C 0 5.554 0.446 6 1 6 L 2 6 L 2 7 L 1 7 C 0.446 7 0 7.446 0 8 C 0 8.554 0.446 9 1 9 L 2 9 L 2 10 L 1 10 C 0.446 10 0 10.446 0 11 C 0 11.554 0.446 12 1 12 L 2 12 C 2 13.108 2.892 14 4 14 L 4 15 C 4 15.554 4.446 16 5 16 C 5.554 16 6 15.554 6 15 L 6 14 L 7 14 L 7 15 C 7 15.554 7.446 16 8 16 C 8.554 16 9 15.554 9 15 L 9 14 L 10 14 L 10 15 C 10 15.554 10.446 16 11 16 C 11.554 16 12 15.554 12 15 L 12 14 C 13.108 14 14 13.108 14 12 L 15 12 C 15.554 12 16 11.554 16 11 C 16 10.446 15.554 10 15 10 L 14 10 L 14 9 L 15 9 C 15.554 9 16 8.554 16 8 C 16 7.446 15.554 7 15 7 L 14 7 L 14 6 L 15 6 C 15.554 6 16 5.554 16 5 C 16 4.446 15.554 4 15 4 L 14 4 C 14 2.892 13.108 2 12 2 L 12 1 C 12 0.446 11.554 0 11 0 C 10.446 0 10 0.446 10 1 L 10 2 L 9 2 L 9 1 C 9 0.446 8.554 0 8 0 C 7.446 0 7 0.446 7 1 L 7 2 L 6 2 L 6 1 C 6 0.446 5.554 0 5 0 z M 4.5 3 L 11.5 3 C 12.332864 3 13 3.6671362 13 4.5 L 13 11.5 C 13 12.332864 12.332864 13 11.5 13 L 4.5 13 C 3.6671362 13 3 12.332864 3 11.5 L 3 4.5 C 3 3.6671362 3.6671362 3 4.5 3 z "
     id="rect3020" />
  <path
     style="fill:#bebebe;fill-opacity:1;fill-rule:evenodd;stroke:none"
     d="m 5,10 6,0 c 0.598116,0 1,0.460083 1,1 0,0.554 -0.446,1 -1,1 L 5,12 C 4.446,12 4,11.554 4,11 4,10.44742 4.5007563,10 5,10 z"
     id="rect3010"
     inkscape:connector-curvature="0"
     sodipodi:nodetypes="cccsscc" />
</svg>
